Sources/FrostedUI/Resources/Icons.xcassets/volumeLow12.imageset/volume-low-12.svg

<svg width="12" height="12" viewBox="0 0 12 12" fill="none" xmlns="http://www.w3.org/2000/svg" data-fui-icon="true">
  <path
    d="M5.10156 1.4668C5.87465 0.975917 6.93737 1.52128 6.9375 2.48535V9.51465C6.9374 10.5429 5.72822 11.0943 4.95117 10.4209L3.30664 8.99609C3.17028 8.87793 2.99586 8.8125 2.81543 8.8125H2.0625C1.23407 8.8125 0.5625 8.14093 0.5625 7.3125V4.6875C0.562527 3.8591 1.23409 3.1875 2.0625 3.1875H2.81543C2.99587 3.1875 3.17028 3.12208 3.30664 3.00391L4.95117 1.5791L5.10156 1.4668ZM4.28906 4.1377C3.87998 4.49223 3.35676 4.6875 2.81543 4.6875H2.0625V7.3125H2.81543C3.35675 7.3125 3.87999 7.50778 4.28906 7.8623L5.4375 8.85742V3.1416L4.28906 4.1377ZM7.69141 4C7.9676 3.69146 8.44135 3.6653 8.75 3.94141L8.35352 4.38477C8.74421 3.94814 8.75063 3.9413 8.75098 3.94141V3.94238L8.75195 3.94336C8.75273 3.94406 8.75402 3.94455 8.75488 3.94531C8.75658 3.94686 8.75877 3.94838 8.76074 3.9502C8.7647 3.95385 8.76942 3.95813 8.77441 3.96289C8.78444 3.97245 8.79581 3.98498 8.80957 3.99902C8.83726 4.0273 8.87274 4.0645 8.91211 4.11133C8.99082 4.20499 9.08936 4.33752 9.18555 4.50879C9.37944 4.85405 9.56249 5.35455 9.5625 6C9.5625 6.64545 9.37943 7.14595 9.18555 7.49121C9.08936 7.66248 8.99082 7.795 8.91211 7.88867C8.87275 7.9355 8.83726 7.9727 8.80957 8.00098C8.79581 8.01502 8.78444 8.02755 8.77441 8.03711C8.76942 8.04187 8.7647 8.04615 8.76074 8.0498C8.75878 8.05162 8.75658 8.05315 8.75488 8.05469C8.75403 8.05546 8.75274 8.05594 8.75195 8.05664L8.75098 8.05762V8.05859C8.7507 8.05884 8.75007 8.05895 8.25 7.5L8.75 8.05859C8.44135 8.33473 7.96761 8.30857 7.69141 8C7.43268 7.71078 7.43865 7.27593 7.69434 6.99512L7.74316 6.94727L7.74023 6.94824C7.74458 6.94368 7.75317 6.93535 7.76367 6.92285C7.7904 6.89102 7.83272 6.83553 7.87695 6.75684C7.9643 6.60129 8.0625 6.35125 8.0625 6C8.06249 5.64875 7.9643 5.3987 7.87695 5.24316C7.83272 5.16446 7.79039 5.10897 7.76367 5.07715C7.75275 5.06415 7.74444 5.05519 7.74023 5.05078C7.74089 5.05139 7.7423 5.05195 7.74316 5.05273C7.74402 5.05352 7.74504 5.0547 7.74609 5.05566H7.74707L7.69531 5.00488C7.43914 4.72409 7.43251 4.28938 7.69141 4Z"
    fill="currentColor"
  />
</svg>

<svg xmlns="http://www.w3.org/2000/svg" width="12" height="12" fill="none" data-fui-icon="true" viewBox="0 0 12 12"><path fill="currentColor" d="M5.102 1.467c.773-.491 1.835.054 1.835 1.018v7.03c0 1.028-1.209 1.58-1.986.906L3.307 8.996a.75.75 0 0 0-.492-.184h-.752a1.5 1.5 0 0 1-1.5-1.5V4.688a1.5 1.5 0 0 1 1.5-1.5h.752a.75.75 0 0 0 .492-.183L4.95 1.579zm-.813 2.67a2.25 2.25 0 0 1-1.474.55h-.752v2.625h.752a2.25 2.25 0 0 1 1.474.55l1.149.995V3.142zM7.691 4a.75.75 0 0 1 1.059-.059l-.396.444.397-.444v.001l.001.001.003.002.006.005.013.013.036.036q.042.042.102.112c.079.094.177.227.274.398.193.345.376.846.377 1.491 0 .645-.184 1.146-.377 1.491a2.6 2.6 0 0 1-.376.51l-.036.036-.013.013-.006.005q-.002 0-.003.002h-.001v.002L8.25 7.5l.5.559a.75.75 0 0 1-1.056-1.064l.05-.048-.004.001.024-.025c.026-.032.069-.087.113-.166.087-.156.186-.406.186-.757s-.099-.601-.186-.757a1 1 0 0 0-.137-.192q0 0 .003.002l.003.003h.001l-.052-.051A.75.75 0 0 1 7.691 4"/></svg>
